!!!OTL: 617. Hinterm Ofen (Vexier-Liedchen).
!!!ARE: Europa, Mitteleuropa, Deutschland, Kassel
!!!SCT: K2617
!!!TXL: @@DE
!!!YEM: Copyright 1995, estate of Helmut Schaffrath.
**kern	**text
*clefG2	*
*M2/4	*
*k[f#]	*
*G:	*
=1	=1
{8g	Hin-
16f#L	-term
16eJ	.
8d	O-
8d	-fen,
=2	=2
8g	hin-
16f#L	-term
16eJ	.
8d	O-
8d}	-fen
=3	=3
{8e	ſteht
8e	ein
8f#	al-
8f#	-ter
=4	=4
4g	Ran-
8g	-ʒen.
8r}	.
=5;	=5;
{8g	Seht
8b	ein-
8b	-mal
8dd	den
=6	=6
8dd	Ran-
8cc	-ʒen
4a}	an,
=7	=7
{8a	wie
8cc	der
8cc	Ran-
8ee	-ʒen
=8	=8
8ee	tan-
8dd	-ʒen
4b}	kann.
=9	=9
{8g	Hin-
16f#L	-term
16eJ	.
8d	O-
8d	-fen,
=10	=10
8g	hin-
16f#L	-term
16eJ	.
8d	O-
8d}	-fen
=11	=11
{8e	ſteht
8e	ein
8f#	al-
8f#	-ter
=12	=12
4g	Ran-
8g	-ʒen.
8r}	.
==	==
!!!AGN: Kinder -, Vexier - Lied, Gesellschafts - Spiel
!!!ONB: ESAC (Essen Associative Code) Database: KINDER
!!!AMT: simple duple
!!!AIN: vox
!!!EED: Helmut Schaffrath
!!!EEV: 1.0
!!Aus Kassel: 1896 durch Lewalter.
!!!GTL: Zweites Buch. Kinderspiel: 10. Gesellschafts- und Pfaenderspiele. / [Nur um Theil fuer Kinder gehoerend; das meiste ist altes Erbgut der heranwachsenden Jugend.]
!!!URL-scan: https://archive.org/details/DeutschesKinderliedUndKinderspiel/page/671/mode/1up
!!!ENC: Anna Maria Matuszewska
!!!EEV: 2024/05/09
*-	*-
